X: 2077
T: Çalıma Bak Efede
C: Lavtacı Hristo
O: Turkey
F: http://compmusic.upf.edu/node/140
N: rast--sarki--aksak--calima_bak--lavtaci_hristo
N: makam= rast
N: form= sarki
N: usul= aksak = 9/8
M: 9/8
L: 1/16
K: C _1/4B ^f  
Q: 1/4=138
%%MIDI tuningsystem comma53
z4 G2G2 G4 A2B2 c2 | B3AA2 {B}AGG4e2 d2c2  | \
w:  Ça lı ma  bak   |  e *  fe *  *  *  de  hay din di   | 
B3A A2{B}AG G4 GABc Bc | 
w:  e *  fe *  *  *  de   SAZ  | 
d4^c2 d2d4d2 c2=B2  | ^c2d2 e2{=f}ed d4 g2f2 e2 | \
w:  *  Na sıl  dur muş   |  te *  pe *  *  *  de  hay din di   | 
e3d=fe d^cd4de ^fga2  | 
w:  te *  pe *  *  *  de   SAZ  | 
g3e f3d e3^c defg a2 | g3ef3de3^cde fgfa  | 
w:   |   | 
g4 f2g2 f2e2 f2g2 a2 | =f3ed2 {e}dcB4g2 g2g2  | \
w:  *  A çık  sa *  çık   |  be *  le  *  *  *  de  hay din di   | 
=f3/2e/d2 fed^c d4 ded=c Bc | 
w:  be *  *  le  *  *  *  de   SAZ  | 
d4d2 e2d2 c2B2 A2c2  | B3A A2{B}AG G4 e2d2 c2 | \
w:  *  Ta ra bu *  lus   |  fe *  se  *  *  *  de  hay din di   | 
B3AA2 {B}AGG8z2  | 
w:  fe *  se  *  *  *  de    | 
^c2d2 c2=B2 c2d2 c4 B2 | ^c2 d2c2 =B2c2 d2c4B2  | \
w:  ARANAĞME  |   | 
^c2d2 c2=B2 cdec d6 | 
w:   | 
^cd e=fag feed ded=c BAG2  | ABce dedc BcAB G4 d2 | 
w:   |   | 
^c2 d2c2 =B2c2 d2c4B2  | ^c2d2 c2=B2 c2d2 c4 B2 | \
w:  ARANAĞME  |   | 
^c2 d2c2 =B2cd ecd6  | 
w:   | 
^cde=f agfe edde d=cBA G2 | AB cede dcBc ABG3gfg  | 
w:   |   | 
a4 g2a2 a4 a2b2 c'2 | a3gg2 {_b}agg2 =f2b2 a2g2  | \
w:  *  Ba şı  gö ğe   |  e *  ri *  *  *  yor  *  hay din di   | 
=f2{a}gf f_1/4eed d8 z2 | 
w:  e *  *  *  ri *  *  *  yor    | 
a3ga3gag =fef2 f2f2  | a3g a3g ag=fe f2f2 f2 | 
w:  SAZ  |  SAZ  | 
a_b c'd'c'b agg=f gafg f_1/4edc  | \
w:   | 
d_1/4e2d agg=f feed d=e^fg fa | 
w:   | 
g4f2 g2f2 e2f2 g2a2  | =f3e d2{e}dc B4 g2g2 g2 | \
w:  *  Bu lut la *  ra   |  gi *  ri *  *  *  yor  hay din di   | 
=f3/2e/ d2fe d^cd4de d=cBc  | 
w:  gi *  *  ri *  *  *  yor   SAZ  | 
d4 d2e2 d2c2 B2A2 c2 | B3AAB AGG4e2 d2c2  | \
w:  *  Bu lut la *  ra   |  gi *  ri *  *  *  yor  hay din di   | 
B3A A2{B}AG G8 z2 | 
w:  gi *  ri *  *  *  yor    | 
z4G2 G2G4A2 B2c2  | B3A A2{B}AG G4 e2d2 c2 | \
w:  Ça lı ma  bak   |  e *  fe *  *  *  de  hay din di   | 
B3AA2 {B}AGG4GA BcBc  | 
w:  e *  fe *  *  *  de   SAZ  | 
d4 ^c2d2 d4 d2c2 =B2 | ^c2 d2e2 {=f}edd4g2 f2e2  | \
w:  *  Na sıl  dur muş   |  te *  pe *  *  *  de  hay din di   | 
e3d =fed^c d4 de^fg a2 | 
w:  te *  pe *  *  *  de   SAZ  | 
g3ef3de3^cde fga2  | g3e f3d e3^c defg fa | 
w:   |   | 
g4f2 g2f2 e2f2 g2a2  | =f3e d2{e}dc B4 g2g2 g2 | \
w:  *  A çık  sa *  çık   |  be *  le  *  *  *  de  hay din di   | 
=f3/2e/ d2fe d^cd4de d=cBc  | 
w:  be *  *  le  *  *  *  de   SAZ  | 
d4 d2e2 d2c2 B2A2 c2 | B3AA2 {B}AGG4e2 d2c2  | \
w:  *  Ta ra bu *  lus   |  fe *  se  *  *  *  de  hay din di   | 
B3A A2{B}AG G8 z2 | 
w:  fe *  se  *  *  *  de    | 
^c2 d2c2 =B2c2 d2c4B2  | ^c2d2 c2=B2 c2d2 c4 B2 | \
w:  ARANAĞME  |   | 
^c2 d2c2 =B2cd ecd6  | 
w:   | 
^cde=f agfe edde d=cBA G2 | AB cede dcBc ABG4d2  | 
w:   |   | 
^c2d2 c2=B2 c2d2 c4 B2 | ^c2 d2c2 =B2c2 d2c4B2  | \
w:  ARANAĞME  |   | 
^c2d2 c2=B2 cdec d6 | 
w:   | 
^cd e=fag feed ded=c BAG2  | ABce dedc BcAB G3g fg | 
w:   |   | 
a4g2 a2a4a2 b2c'2  | a3g g2{_b}ag g2=f2 b2a2 g2 | \
w:  *  Ba şı  gö ğe   |  e *  ri *  *  *  yor  *  hay din di   | 
=f2 {a}gff_1/4e edd8z2  | 
w:  e *  *  *  ri *  *  *  yor    | 
a3g a3g ag=fe f2f2 f2 | a3ga3gag =fef2 f2f2  | 
w:  SAZ  |  SAZ  | 
a_bc'd' c'bag g=fga fgf_1/4e dc | \
w:   | 
d_1/4e2dag g=ffe edd=e ^fgfa  | 
w:   | 
g4 f2g2 f2e2 f2g2 a2 | =f3ed2 {e}dcB4g2 g2g2  | \
w:  *  Bu lut la *  ra   |  gi *  ri *  *  *  yor  hay din di   | 
=f3/2e/d2 fed^c d4 ded=c Bc | 
w:  gi *  *  ri *  *  *  yor   SAZ  | 
d4d2 e2d2 c2B2 A2c2  | B3A ABAG G4 e2d2 c2 | \
w:  *  Bu lut la *  ra   |  gi *  ri *  *  *  yor  hay din di   | 
B3AA2 {B}AGG8z2  | 
w:  gi *  ri *  *  *  yor    | 
|


